_assets/img/icons/icon-book-white.svg

<svg width="27" height="33" viewBox="0 0 27 33" xmlns="http://www.w3.org/2000/svg" xmlns:sketch="http://www.bohemiancoding.com/sketch/ns"><title>Shape</title><desc>Created with Sketch.</desc><path d="M26.8.5h-24.6l-2.2 2.2v26.8l22.4 2.2v-26.7l-19.6-1.9-.6-.1v-.3h22.4v22.4h-.7v2.2h3v-26.8h-.1zm-11.2 15.7l-9-.9v-2.3l9 .9v2.3zm-11.2-8.1l13.4 1.3v2.2l-13.4-1.3v-2.2z" sketch:type="MSShapeGroup" fill="#fff"/></svg>

<svg width="27" height="33" viewBox="0 0 27 33" xmlns="http://www.w3.org/2000/svg"><title>Shape</title><desc>Created with Sketch.</desc><path d="M26.8.5H2.2L0 2.7v26.8l22.4 2.2V5L2.8 3.1 2.2 3v-.3h22.4v22.4h-.7v2.2h3V.5h-.1zM15.6 16.2l-9-.9V13l9 .9v2.3zM4.4 8.1l13.4 1.3v2.2L4.4 10.3V8.1z" fill="#fff"/></svg>
